X:47
T: Shang ci shan
N: C1545
O: China, Heilongjiang, Suihua
S: III, 59]
R: Xiaodiao. Gan miaohui]
M: 2/4
L: 1/16
K: F
G2E2D2D2
G2E2D2D2
G2E2D2D2
G2E2D2D2
z2dcd2f2 | A3cA2c2 | d2d4e2 | dedcA4
f2A2c2A2 | G3Ac2A2 | G3Ac3A | G3Ac4
z2fgd2c2 | dfdcA4
z2AAA2e2 | d4c2A2 | G2AcAGF2 | G2D4C2 | D8
A3GF2cA | G4G2^F2
z2AAA2e2 | d4c2A2 | G3AG2F2 | G2D4C2 | D8

